X:212
T: Ostergesang
N: A0565
O: Europa, Mitteleuropa, Deutschland
N: Muenchner Gsgb 1586 fol. 108
R: Romanze, Ballade, Lied, religioeses Lied
M: 3/2
L: 1/2
K: C
c | c2c | ced | cBc | G2
B | c2B | A2G | A2c | B2
G | EFG | AGG | GGE | C2
D | EED | E2A | AGF | E2
D | CCD | E2A | AGF | E2

@@@ Tune index: 525
